icons/1_Primary/Todoist.svg

<svg width="1024" height="1024" viewBox="0 0 1024 1024" fill="none" xmlns="http://www.w3.org/2000/svg">
<g clip-path="url(#clip0_2_3669)">
<path d="M512 1024C794.77 1024 1024 794.77 1024 512C1024 229.23 794.77 0 512 0C229.23 0 0 229.23 0 512C0 794.77 229.23 1024 512 1024Z" fill="#F8C18C"/>
<path d="M345.5 290H678.5C693.207 290.042 707.299 295.903 717.698 306.302C728.097 316.701 733.958 330.793 734 345.5V678.5C733.958 693.207 728.097 707.299 717.698 717.698C707.299 728.097 693.207 733.958 678.5 734H345.5C330.793 733.958 316.701 728.097 306.302 717.698C295.903 707.299 290.042 693.207 290 678.5V603.93L290.78 604.39C309.72 615.39 354.49 641.49 365.46 647.68C372.1 651.43 378.46 651.33 384.85 647.68L473.09 596.89L473.3 596.77L474.14 596.28L564.53 544.28C568.38 542.06 568.53 535.28 564.26 532.79L561.26 531.07C556.87 528.57 551.2 525.34 548.77 523.92C546.642 522.761 544.251 522.167 541.828 522.197C539.404 522.227 537.029 522.879 534.93 524.09C532.78 525.33 389.22 607.87 384.43 610.6C381.602 612.215 378.402 613.065 375.145 613.065C371.888 613.065 368.688 612.215 365.86 610.6C361.34 607.98 290.04 566.6 290.04 566.6V529.12L290.83 529.58C309.77 540.58 354.54 566.68 365.51 572.87C372.15 576.62 378.51 576.52 384.9 572.87L473.19 522L473.52 521.81L473.78 521.66L473.93 521.57L564.53 469.43C568.38 467.21 568.53 460.43 564.26 457.94L561.26 456.22C556.87 453.72 551.17 450.48 548.75 449.06C546.621 447.902 544.231 447.309 541.808 447.339C539.385 447.369 537.01 448.02 534.91 449.23C532.76 450.47 389.2 533.01 384.41 535.74C381.582 537.355 378.382 538.205 375.125 538.205C371.868 538.205 368.668 537.355 365.84 535.74C361.32 533.12 290.02 491.74 290.02 491.74V454.31L290.8 454.76C309.73 465.76 354.52 491.87 365.49 498.06C372.13 501.81 378.49 501.71 384.88 498.06L473.32 447.16L473.43 447.09L564.56 394.64C568.41 392.42 568.56 385.64 564.29 383.15L561.29 381.43C556.9 378.93 551.21 375.69 548.79 374.27C546.662 373.111 544.271 372.518 541.848 372.547C539.424 372.577 537.049 373.229 534.95 374.44C532.8 375.68 389.24 458.22 384.45 460.95C381.622 462.566 378.422 463.416 375.165 463.416C371.908 463.416 368.708 462.566 365.88 460.95C361.36 458.33 290.06 416.95 290.06 416.95V345.5C290.102 330.804 295.955 316.721 306.341 306.323C316.727 295.926 330.804 290.058 345.5 290Z" fill="white"/>
</g>
<defs>
<clipPath id="clip0_2_3669">
<rect width="1024" height="1024" fill="white"/>
</clipPath>
</defs>
</svg>

<svg xmlns="http://www.w3.org/2000/svg" viewBox="0 0 1024 1024">
   <circle cx="512" cy="512" r="512" style="fill:#e44232"/>
   <path d="M345.5 290h333a55.66 55.66 0 0 1 55.5 55.5v333a55.66 55.66 0 0 1-55.5 55.5h-333a55.66 55.66 0 0 1-55.5-55.5v-74.57l.78.46c18.94 11 63.71 37.1 74.68 43.29 6.64 3.75 13 3.65 19.39 0l88.24-50.79.21-.12.84-.49 90.39-52c3.85-2.22 4-9-.27-11.49l-3-1.72c-4.39-2.5-10.06-5.73-12.49-7.15a14.15 14.15 0 0 0-13.84.17c-2.15 1.24-145.71 83.78-150.5 86.51a18.72 18.72 0 0 1-18.57 0c-4.52-2.62-75.82-44-75.82-44v-37.48l.79.46c18.94 11 63.71 37.1 74.68 43.29 6.64 3.75 13 3.65 19.39 0L473.19 522l.33-.19.26-.15.15-.09 90.6-52.14c3.85-2.22 4-9-.27-11.49l-3-1.72c-4.39-2.5-10.09-5.74-12.51-7.16a14.16 14.16 0 0 0-13.84.17c-2.15 1.24-145.71 83.78-150.5 86.51a18.72 18.72 0 0 1-18.57 0c-4.52-2.62-75.82-44-75.82-44v-37.43l.78.45c18.93 11 63.72 37.11 74.69 43.3 6.64 3.75 13 3.65 19.39 0l88.44-50.9.11-.07 91.13-52.45c3.85-2.22 4-9-.27-11.49l-3-1.72c-4.39-2.5-10.08-5.74-12.5-7.16a14.15 14.15 0 0 0-13.84.17c-2.15 1.24-145.71 83.78-150.5 86.51a18.71 18.71 0 0 1-18.57 0c-4.52-2.62-75.82-44-75.82-44V345.5A55.66 55.66 0 0 1 345.5 290Z" style="fill:#fff"/>
</svg>
